X:1
T:Wha'll Be King But Charlie
M:6/8
L:1/8
K:Bb
 D| B2 A B2 c| d2 e d2 c| B2 A B2 c| d3 D2 D| B2 c d2 g| f2 d c2 d|\
 B2 GG-F D| G3 G2 A| B2 G GFD| B2 G GFD| B2 G GFD| F3 F2 A| B2 c d2 g|\
 f2 d c2 d| B2 GG-F D| G3 G2 A| B2 G GFD| B2 G GFD| dcB cBA|B-A G FED|\
 B2 c d2 g| f2 d c2 d| B2 GG-F D| G3 G2 z|

